!!!COM: Haydn, Franz Joseph
!!!CDT: 1732-1809
!!!OTL: National Anthem, Germany
!!!ENC: Davis, Matthew J.
!!Vocal Line Only
**kern
*clefG2
*k[b-e-a-]
*E-:
*M4/4
=1-
4.3-
8f
=2
4g
4f
4a-
4g
=3
8f
8d
4e-
4cc
4b-
=4
4a-
4g
4f
8g
8e-
=5
2b-
4.e-
8f
=6
4g
4f
4a-
4g
=7
8f
8d
4e-
4cc
4b-
=8
4a-
4g
4f
8g
8e-
=9
2b-
4f
4g
=10
8f
8d
4B-
4a-
4g
=11
8f
8d
4B-
4b-
4a-
=12
4.g
8g
4an
8an
8b-
=13
2b-
==!|:14
4.e-
8d
=15
8dd
8cc
4b-
4.cc
8b-
=16
8b-
8a-
4g
4.f
16g
16a-
=17
8b-
8cc
8a-
8f
4e-
8g
8f
=18
2e-
!Repeat from measure 14
==:|!
*-
